Numix-GalliumOS/16/status/ubuntuone-client-paused.svg

<?xml version="1.0" encoding="UTF-8" standalone="no"?>
<svg
   xmlns:dc="http://purl.org/dc/elements/1.1/"
   xmlns:cc="http://creativecommons.org/ns#"
   xmlns:rdf="http://www.w3.org/1999/02/22-rdf-syntax-ns#"
   xmlns:svg="http://www.w3.org/2000/svg"
   xmlns="http://www.w3.org/2000/svg"
   xmlns:sodipodi="http://sodipodi.sourceforge.net/DTD/sodipodi-0.dtd"
   xmlns:inkscape="http://www.inkscape.org/namespaces/inkscape"
   width="16"
   height="16"
   viewBox="0 0 16 16"
   id="svg2989"
   version="1.1"
   inkscape:version="0.91 r"
   sodipodi:docname="ubuntuone-client-paused.svg">
  <metadata
     id="metadata2999">
    <rdf:RDF>
      <cc:Work
         rdf:about="">
        <dc:format>image/svg+xml</dc:format>
        <dc:type
           rdf:resource="http://purl.org/dc/dcmitype/StillImage" />
      </cc:Work>
    </rdf:RDF>
  </metadata>
  <defs
     id="defs2997" />
  <sodipodi:namedview
     pagecolor="#ffffff"
     bordercolor="#666666"
     borderopacity="1"
     objecttolerance="10"
     gridtolerance="10"
     guidetolerance="10"
     inkscape:pageopacity="0"
     inkscape:pageshadow="2"
     inkscape:window-width="1280"
     inkscape:window-height="998"
     id="namedview2995"
     showgrid="false"
     inkscape:zoom="29.5"
     inkscape:cx="10.374677"
     inkscape:cy="7.2715851"
     inkscape:window-x="0"
     inkscape:window-y="0"
     inkscape:window-maximized="1"
     inkscape:current-layer="svg2989" />
  <path
     style="fill:#ececec;fill-opacity:1"
     d="M 8 3.910156 C 5.742188 3.910156 3.910156 5.742188 3.910156 8 C 3.910156 8.019531 3.910156 8.035156 3.910156 8.050781 C 3.777344 8.023438 3.640625 8 3.5 8 C 2.371094 8 1.453125 8.914062 1.453125 10.046875 C 1.453125 11.175781 2.371094 12.089844 3.5 12.089844 L 11.683594 12.089844 C 13.261719 12.089844 14.546875 10.808594 14.546875 9.226562 C 14.546875 7.664062 13.289062 6.390625 11.734375 6.363281 C 11.097656 4.925781 9.671875 3.910156 8 3.910156 Z M 6.261719 6.339844 C 6.269531 6.339844 6.277344 6.339844 6.285156 6.339844 C 6.519531 6.316406 6.753906 6.394531 6.925781 6.558594 C 7.097656 6.71875 7.191406 6.945312 7.183594 7.183594 L 7.183594 9.636719 C 7.1875 9.929688 7.03125 10.207031 6.777344 10.355469 C 6.519531 10.503906 6.207031 10.503906 5.949219 10.355469 C 5.695312 10.207031 5.542969 9.929688 5.546875 9.636719 L 5.546875 7.183594 C 5.535156 6.792969 5.804688 6.449219 6.183594 6.363281 C 6.210938 6.355469 6.234375 6.34375 6.261719 6.339844 Z M 9.558594 6.339844 C 9.792969 6.316406 10.027344 6.394531 10.199219 6.558594 C 10.371094 6.71875 10.464844 6.945312 10.453125 7.183594 L 10.453125 9.636719 C 10.457031 9.929688 10.304688 10.207031 10.050781 10.355469 C 9.792969 10.503906 9.480469 10.503906 9.222656 10.355469 C 8.96875 10.207031 8.8125 9.929688 8.816406 9.636719 L 8.816406 7.183594 C 8.808594 6.792969 9.078125 6.449219 9.457031 6.363281 C 9.492188 6.351562 9.523438 6.34375 9.558594 6.339844 Z "
     id="path2993" />
</svg>

<svg xmlns="http://www.w3.org/2000/svg" viewBox="0 0 16 16">
 <path d="m 8 3.91 c -2.258 0 -4.09 1.832 -4.09 4.09 c 0 0.02 0 0.035 0 0.051 c -0.133 -0.027 -0.27 -0.051 -0.41 -0.051 c -1.129 0 -2.047 0.914 -2.047 2.047 c 0 1.129 0.918 2.043 2.047 2.043 l 8.184 0 c 1.578 0 2.863 -1.281 2.863 -2.863 c 0 -1.562 -1.258 -2.836 -2.813 -2.863 c -0.637 -1.438 -2.063 -2.453 -3.734 -2.453 m -1.738 2.43 c 0.008 0 0.016 0 0.023 0 c 0.234 -0.023 0.469 0.055 0.641 0.219 c 0.172 0.16 0.266 0.387 0.258 0.625 l 0 2.453 c 0.004 0.293 -0.152 0.57 -0.406 0.719 c -0.258 0.148 -0.57 0.148 -0.828 0 c -0.254 -0.148 -0.406 -0.426 -0.402 -0.719 l 0 -2.453 c -0.012 -0.391 0.258 -0.734 0.637 -0.82 c 0.027 -0.008 0.051 -0.02 0.078 -0.023 m 3.297 0 c 0.234 -0.023 0.469 0.055 0.641 0.219 c 0.172 0.16 0.266 0.387 0.254 0.625 l 0 2.453 c 0.004 0.293 -0.148 0.57 -0.402 0.719 c -0.258 0.148 -0.57 0.148 -0.828 0 c -0.254 -0.148 -0.41 -0.426 -0.406 -0.719 l 0 -2.453 c -0.008 -0.391 0.262 -0.734 0.641 -0.82 c 0.035 -0.012 0.066 -0.02 0.102 -0.023 Z" style="fill:#ececec;fill-opacity:1"/>
</svg>
